X: 36263
T: Seals In The Town
R: polka
M: 2/4
K: Bminor
d/e/|:fd BA/B/|cA cd/e/|fd BA/B/|c2- cd/e/|
fd BA/B/|cA ce|dc A/B/c|1 B2 Bd/e/:|2 B2 B2||
|:bb a/g/f|ge f2|BG B/c/d|fd c2|
bb a/g/f|ge f2|dc A/B/c|1 B2 B2:|2 B2 Bd/e/||

